flaticon/education/calculator-1.svg

<svg xmlns="http://www.w3.org/2000/svg" width="32" height="32" viewBox="0 0 24 24">
    <path d="M 18 0 L 6 0 C 4.679688 0 3.601562 1.078125 3.601562 2.398438 L 3.601562 21.601562 C 3.601562 22.921875 4.679688 24 6 24 L 18 24 C 19.320312 24 20.398438 22.921875 20.398438 21.601562 L 20.398438 2.398438 C 20.398438 1.078125 19.320312 0 18 0 Z M 19.601562 21.601562 C 19.601562 22.480469 18.878906 23.199219 18 23.199219 L 6 23.199219 C 5.121094 23.199219 4.398438 22.480469 4.398438 21.601562 L 4.398438 2.398438 C 4.398438 1.519531 5.121094 0.800781 6 0.800781 L 18 0.800781 C 18.878906 0.800781 19.601562 1.519531 19.601562 2.398438 Z M 19.601562 21.601562"/>
    <path d="M18.398438 1.601562L5.601562 1.601562C5.359375 1.601562 5.199219 1.761719 5.199219 2L5.199219 9.199219C5.199219 9.441406 5.359375 9.601562 5.601562 9.601562L18.398438 9.601562C18.640625 9.601562 18.800781 9.441406 18.800781 9.199219L18.800781 2C18.800781 1.761719 18.640625 1.601562 18.398438 1.601562zM18 8.800781L6 8.800781 6 2.398438 18 2.398438zM9.160156 11.28125C9.160156 10.800781 8.761719 10.398438 8.28125 10.398438L6.878906 10.398438C6.398438 10.398438 6 10.800781 6 11.320312L6 11.921875C6 12.398438 6.398438 12.800781 6.878906 12.800781L8.320312 12.800781C8.800781 12.800781 9.199219 12.398438 9.160156 11.878906zM8.359375 11.921875C8.359375 11.960938 8.320312 12 8.28125 12L6.878906 12C6.839844 12 6.800781 11.960938 6.800781 11.878906L6.800781 11.28125C6.800781 11.238281 6.839844 11.199219 6.878906 11.199219L6.878906 11.238281 8.28125 11.238281C8.320312 11.238281 8.359375 11.28125 8.359375 11.320312zM13.558594 11.320312C13.558594 10.839844 13.160156 10.441406 12.679688 10.441406L11.28125 10.441406C10.800781 10.441406 10.398438 10.839844 10.398438 11.320312L10.398438 11.921875C10.398438 12.398438 10.800781 12.800781 11.320312 12.800781L12.71875 12.800781C13.199219 12.800781 13.601562 12.398438 13.558594 11.921875zM12.761719 11.878906C12.761719 11.921875 12.71875 11.960938 12.679688 11.960938L11.28125 11.960938C11.238281 11.960938 11.199219 11.921875 11.199219 11.878906L11.199219 11.28125C11.199219 11.238281 11.238281 11.199219 11.28125 11.199219L12.679688 11.199219C12.71875 11.199219 12.761719 11.238281 12.761719 11.28125zM17.960938 11.320312C17.960938 10.839844 17.558594 10.441406 17.078125 10.441406L15.679688 10.441406C15.199219 10.441406 14.800781 10.839844 14.800781 11.320312L14.800781 11.921875C14.800781 12.398438 15.199219 12.800781 15.71875 12.800781L17.121094 12.800781C17.601562 12.800781 18 12.398438 17.960938 11.921875zM17.160156 11.878906C17.160156 11.921875 17.121094 11.960938 17.078125 11.960938L15.679688 11.960938C15.640625 11.960938 15.601562 11.921875 15.601562 11.878906L15.601562 11.28125C15.601562 11.238281 15.640625 11.199219 15.679688 11.199219L17.078125 11.199219C17.121094 11.199219 17.160156 11.238281 17.160156 11.28125zM17.960938 14.519531C17.960938 14.039062 17.558594 13.640625 17.078125 13.640625L15.679688 13.640625C15.199219 13.640625 14.800781 14.039062 14.800781 14.519531L14.800781 15.121094C14.800781 15.601562 15.199219 16 15.71875 16L17.121094 16C17.601562 16 18 15.601562 17.960938 15.121094zM17.160156 15.078125C17.160156 15.121094 17.121094 15.160156 17.078125 15.160156L15.679688 15.160156C15.640625 15.160156 15.601562 15.121094 15.601562 15.078125L15.601562 14.480469C15.601562 14.441406 15.640625 14.398438 15.679688 14.398438L17.078125 14.398438C17.121094 14.398438 17.160156 14.441406 17.160156 14.480469zM13.558594 14.519531C13.558594 14.039062 13.160156 13.640625 12.679688 13.640625L11.28125 13.640625C10.800781 13.640625 10.398438 14.039062 10.398438 14.519531L10.398438 15.121094C10.398438 15.601562 10.800781 16 11.320312 16L12.71875 16C13.199219 16 13.601562 15.601562 13.558594 15.121094zM12.761719 15.078125C12.761719 15.121094 12.71875 15.160156 12.679688 15.160156L11.28125 15.160156C11.238281 15.160156 11.199219 15.121094 11.199219 15.078125L11.199219 14.480469C11.199219 14.441406 11.238281 14.398438 11.28125 14.398438L12.679688 14.398438C12.71875 14.398438 12.761719 14.441406 12.761719 14.480469zM9.160156 14.480469C9.160156 14 8.761719 13.601562 8.28125 13.601562L6.878906 13.601562C6.398438 13.601562 6 14 6 14.519531L6 15.121094C6 15.601562 6.398438 16 6.878906 16L8.320312 16C8.800781 16 9.199219 15.601562 9.160156 15.078125zM8.359375 15.121094C8.359375 15.160156 8.320312 15.199219 8.28125 15.199219L6.878906 15.199219C6.839844 15.199219 6.800781 15.160156 6.800781 15.078125L6.800781 14.480469C6.800781 14.441406 6.839844 14.398438 6.878906 14.398438L6.878906 14.441406 8.28125 14.441406C8.320312 14.441406 8.359375 14.480469 8.359375 14.519531zM9.160156 17.679688C9.160156 17.199219 8.761719 16.800781 8.28125 16.800781L6.878906 16.800781C6.398438 16.800781 6 17.199219 6 17.71875L6 18.320312C6 18.800781 6.398438 19.199219 6.878906 19.199219L8.320312 19.199219C8.800781 19.199219 9.199219 18.800781 9.160156 18.28125zM8.359375 18.320312C8.359375 18.359375 8.320312 18.398438 8.28125 18.398438L6.878906 18.398438C6.839844 18.398438 6.800781 18.359375 6.800781 18.28125L6.800781 17.679688C6.800781 17.640625 6.839844 17.601562 6.878906 17.601562L6.878906 17.640625 8.28125 17.640625C8.320312 17.640625 8.359375 17.679688 8.359375 17.71875zM13.558594 17.71875C13.558594 17.238281 13.160156 16.839844 12.679688 16.839844L11.28125 16.839844C10.800781 16.839844 10.398438 17.238281 10.398438 17.71875L10.398438 18.320312C10.398438 18.800781 10.800781 19.199219 11.320312 19.199219L12.71875 19.199219C13.199219 19.199219 13.601562 18.800781 13.558594 18.320312zM12.761719 18.28125C12.761719 18.320312 12.71875 18.359375 12.679688 18.359375L11.28125 18.359375C11.238281 18.359375 11.199219 18.320312 11.199219 18.28125L11.199219 17.679688C11.199219 17.640625 11.238281 17.601562 11.28125 17.601562L12.679688 17.601562C12.71875 17.601562 12.761719 17.640625 12.761719 17.679688zM17.960938 17.71875C17.960938 17.238281 17.558594 16.839844 17.078125 16.839844L15.679688 16.839844C15.199219 16.839844 14.800781 17.238281 14.800781 17.71875L14.800781 18.320312C14.800781 18.800781 15.199219 19.199219 15.71875 19.199219L17.121094 19.199219C17.601562 19.199219 18 18.800781 17.960938 18.320312zM17.160156 18.28125C17.160156 18.320312 17.121094 18.359375 17.078125 18.359375L15.679688 18.359375C15.640625 18.359375 15.601562 18.320312 15.601562 18.28125L15.601562 17.679688C15.601562 17.640625 15.640625 17.601562 15.679688 17.601562L17.078125 17.601562C17.121094 17.601562 17.160156 17.640625 17.160156 17.679688zM17.960938 20.921875C17.960938 20.441406 17.558594 20.039062 17.078125 20.039062L15.679688 20.039062C15.199219 20.039062 14.800781 20.441406 14.800781 20.921875L14.800781 21.519531C14.800781 22 15.199219 22.398438 15.71875 22.398438L17.121094 22.398438C17.601562 22.398438 18 22 17.960938 21.519531zM17.160156 21.480469C17.160156 21.519531 17.121094 21.558594 17.078125 21.558594L15.679688 21.558594C15.640625 21.558594 15.601562 21.519531 15.601562 21.480469L15.601562 20.878906C15.601562 20.839844 15.640625 20.800781 15.679688 20.800781L17.078125 20.800781C17.121094 20.800781 17.160156 20.839844 17.160156 20.878906zM13.558594 20.921875C13.558594 20.441406 13.160156 20.039062 12.679688 20.039062L11.28125 20.039062C10.800781 20.039062 10.398438 20.441406 10.398438 20.921875L10.398438 21.519531C10.398438 22 10.800781 22.398438 11.320312 22.398438L12.71875 22.398438C13.199219 22.398438 13.601562 22 13.558594 21.519531zM12.761719 21.480469C12.761719 21.519531 12.71875 21.558594 12.679688 21.558594L11.28125 21.558594C11.238281 21.558594 11.199219 21.519531 11.199219 21.480469L11.199219 20.878906C11.199219 20.839844 11.238281 20.800781 11.28125 20.800781L12.679688 20.800781C12.71875 20.800781 12.761719 20.839844 12.761719 20.878906zM9.160156 20.878906C9.160156 20.398438 8.761719 20 8.28125 20L6.878906 20C6.398438 20 6 20.398438 6 20.921875L6 21.519531C6 22 6.398438 22.398438 6.878906 22.398438L8.320312 22.398438C8.800781 22.398438 9.199219 22 9.160156 21.480469zM8.359375 21.519531C8.359375 21.558594 8.320312 21.601562 8.28125 21.601562L6.878906 21.601562C6.839844 21.601562 6.800781 21.558594 6.800781 21.480469L6.800781 20.878906C6.800781 20.839844 6.839844 20.800781 6.878906 20.800781L6.878906 20.839844 8.28125 20.839844C8.320312 20.839844 8.359375 20.878906 8.359375 20.921875zM8.359375 21.519531"/>
    <path d="M10.039062 6.558594C10.039062 7.121094 10.480469 7.601562 11.078125 7.601562L11.359375 7.601562C11.921875 7.601562 12.398438 7.121094 12.359375 6.519531L12.359375 4.640625C12.359375 4.078125 11.921875 3.601562 11.320312 3.601562L11.039062 3.601562C10.480469 3.601562 10 4.078125 10.039062 4.679688zM10.800781 4.640625C10.800781 4.519531 10.878906 4.398438 11.039062 4.398438L11.320312 4.398438C11.441406 4.398438 11.558594 4.480469 11.558594 4.640625L11.558594 6.519531C11.558594 6.640625 11.480469 6.761719 11.320312 6.761719L11.039062 6.761719C10.921875 6.761719 10.800781 6.679688 10.800781 6.519531zM14.839844 6.558594C14.839844 7.121094 15.28125 7.601562 15.878906 7.601562L16.160156 7.601562C16.71875 7.601562 17.199219 7.121094 17.160156 6.519531L17.160156 4.640625C17.160156 4.078125 16.71875 3.601562 16.121094 3.601562L15.839844 3.601562C15.28125 3.601562 14.800781 4.078125 14.839844 4.679688zM15.601562 4.640625C15.601562 4.519531 15.679688 4.398438 15.839844 4.398438L16.121094 4.398438C16.238281 4.398438 16.359375 4.480469 16.359375 4.640625L16.359375 6.519531C16.359375 6.640625 16.28125 6.761719 16.121094 6.761719L15.839844 6.761719C15.71875 6.761719 15.601562 6.679688 15.601562 6.519531zM13.601562 7.601562C13.839844 7.601562 14 7.441406 14 7.199219 14 7 13.839844 6.800781 13.601562 6.800781 13.359375 6.800781 13.199219 6.960938 13.199219 7.199219 13.199219 7.441406 13.359375 7.601562 13.601562 7.601562zM7.601562 5.601562C7.71875 5.601562 7.800781 5.558594 7.878906 5.480469L8.398438 4.960938 8.398438 7.199219C8.398438 7.441406 8.558594 7.601562 8.800781 7.601562 9.039062 7.601562 9.199219 7.441406 9.199219 7.199219L9.199219 4C9.199219 3.761719 9.039062 3.601562 8.800781 3.601562 8.640625 3.601562 8.515625 3.671875 8.453125 3.789062L7.320312 4.921875C7.160156 5.078125 7.160156 5.320312 7.320312 5.480469 7.398438 5.558594 7.480469 5.601562 7.601562 5.601562zM7.601562 5.601562"/>
</svg>

<svg xmlns="http://www.w3.org/2000/svg" width="32" height="32" viewBox="0 0 24 24">
    <path d="M18 0H6a2.404 2.404 0 0 0-2.398 2.398v19.204A2.404 2.404 0 0 0 6 24h12a2.404 2.404 0 0 0 2.398-2.398V2.398A2.404 2.404 0 0 0 18 0zm1.602 21.602c0 .878-.723 1.597-1.602 1.597H6a1.605 1.605 0 0 1-1.602-1.597V2.398C4.398 1.52 5.121.801 6 .801h12c.879 0 1.602.719 1.602 1.597zm0 0"/>
    <path d="M18.398 1.602H5.602c-.243 0-.403.16-.403.398v7.2c0 .241.16.402.403.402h12.796c.243 0 .403-.16.403-.403V2c0-.238-.16-.398-.403-.398zM18 8.8H6V2.398h12zm0 0M9.16 11.281a.889.889 0 0 0-.879-.883H6.88c-.48 0-.879.403-.879.922v.602c0 .476.398.879.879.879H8.32c.48 0 .88-.403.84-.922zm-.8.64c0 .04-.04.079-.079.079H6.88c-.04 0-.078-.04-.078-.121v-.598c0-.043.039-.082.078-.082v.04H8.28c.04 0 .078.042.078.081zm0 0M13.559 11.32a.885.885 0 0 0-.88-.879h-1.398a.889.889 0 0 0-.883.88v.6c0 .477.403.88.922.88h1.399c.48 0 .883-.403.84-.88zm-.797.559c0 .043-.043.082-.082.082H11.28a.085.085 0 0 1-.082-.082v-.598c0-.043.04-.082.082-.082h1.399c.039 0 .082.04.082.082zm0 0M17.96 11.32a.889.889 0 0 0-.882-.879H15.68a.885.885 0 0 0-.88.88v.6c0 .477.4.88.919.88h1.402c.48 0 .879-.403.84-.88zm-.8.559c0 .043-.039.082-.082.082H15.68c-.04 0-.078-.04-.078-.082v-.598c0-.043.039-.082.078-.082h1.398c.043 0 .082.04.082.082zm0 0M17.96 14.52a.889.889 0 0 0-.882-.88H15.68a.885.885 0 0 0-.88.88v.601c0 .48.4.879.919.879h1.402c.48 0 .879-.398.84-.879zm-.8.558c0 .043-.039.082-.082.082H15.68c-.04 0-.078-.039-.078-.082v-.598c0-.039.039-.082.078-.082h1.398c.043 0 .082.043.082.082zm0 0M13.559 14.52a.885.885 0 0 0-.88-.88h-1.398a.889.889 0 0 0-.883.88v.601c0 .48.403.879.922.879h1.399c.48 0 .883-.398.84-.879zm-.797.558c0 .043-.043.082-.082.082H11.28a.085.085 0 0 1-.082-.082v-.598c0-.039.04-.082.082-.082h1.399c.039 0 .082.043.082.082zm0 0M9.16 14.48a.885.885 0 0 0-.879-.878H6.88c-.48 0-.879.398-.879.918v.601c0 .48.398.879.879.879H8.32c.48 0 .88-.398.84-.922zm-.8.641c0 .04-.04.078-.079.078H6.88c-.04 0-.078-.039-.078-.12v-.599c0-.039.039-.082.078-.082v.043H8.28c.04 0 .078.04.078.079zm0 0M9.16 17.68a.885.885 0 0 0-.879-.88H6.88c-.48 0-.879.4-.879.919v.601c0 .48.398.88.879.88H8.32a.84.84 0 0 0 .84-.919zm-.8.64c0 .04-.04.078-.079.078H6.88c-.04 0-.078-.039-.078-.117v-.601c0-.04.039-.078.078-.078v.039H8.28c.04 0 .078.039.078.078zm0 0M13.559 17.719a.885.885 0 0 0-.88-.88h-1.398a.889.889 0 0 0-.883.88v.601c0 .48.403.88.922.88h1.399c.48 0 .883-.4.84-.88zm-.797.562c0 .04-.043.078-.082.078H11.28c-.043 0-.082-.039-.082-.078v-.601c0-.04.04-.078.082-.078h1.399c.039 0 .082.039.082.078zm0 0M17.96 17.719a.889.889 0 0 0-.882-.88H15.68a.885.885 0 0 0-.88.88v.601c0 .48.4.88.919.88h1.402c.48 0 .879-.4.84-.88zm-.8.562c0 .04-.039.078-.082.078H15.68a.084.084 0 0 1-.078-.078v-.601c0-.04.039-.078.078-.078h1.398c.043 0 .082.039.082.078zm0 0M17.96 20.922a.892.892 0 0 0-.882-.883H15.68a.889.889 0 0 0-.88.883v.598c0 .48.4.878.919.878h1.402c.48 0 .879-.398.84-.878zm-.8.558c0 .04-.039.079-.082.079H15.68a.084.084 0 0 1-.078-.079v-.601c0-.04.039-.078.078-.078h1.398c.043 0 .082.039.082.078zm0 0M13.559 20.922a.889.889 0 0 0-.88-.883h-1.398a.892.892 0 0 0-.883.883v.598c0 .48.403.878.922.878h1.399c.48 0 .883-.398.84-.878zm-.797.558c0 .04-.043.079-.082.079H11.28c-.043 0-.082-.04-.082-.079v-.601c0-.04.04-.078.082-.078h1.399c.039 0 .082.039.082.078zm0 0M9.16 20.879A.885.885 0 0 0 8.281 20H6.88c-.48 0-.879.398-.879.922v.598c0 .48.398.878.879.878H8.32a.84.84 0 0 0 .84-.918zm-.8.64c0 .04-.04.083-.079.083H6.88c-.04 0-.078-.043-.078-.122v-.601c0-.04.039-.078.078-.078v.039H8.28c.04 0 .078.039.078.082zm0 0"/>
    <path d="M10.04 6.559c0 .562.44 1.043 1.038 1.043h.281c.563 0 1.04-.48 1-1.082V4.64c0-.562-.437-1.038-1.039-1.038h-.28a1.01 1.01 0 0 0-1 1.078zm.76-1.918c0-.121.079-.243.24-.243h.28a.23.23 0 0 1 .239.243V6.52c0 .12-.079.242-.239.242h-.28a.233.233 0 0 1-.24-.242zm0 0M14.84 6.559c0 .562.441 1.043 1.039 1.043h.281c.559 0 1.04-.48 1-1.082V4.64c0-.562-.441-1.038-1.039-1.038h-.281a1.01 1.01 0 0 0-1 1.078zm.762-1.918c0-.121.078-.243.238-.243h.281c.117 0 .238.082.238.243V6.52c0 .12-.078.242-.238.242h-.281a.23.23 0 0 1-.238-.242zm0 0M13.602 7.602c.238 0 .398-.16.398-.403a.4.4 0 0 0-.398-.398c-.243 0-.403.16-.403.398 0 .242.16.403.403.403zm0 0M7.602 5.602c.117 0 .199-.043.277-.122l.52-.52V7.2c0 .241.16.402.402.402.238 0 .398-.16.398-.403V4c0-.238-.16-.398-.398-.398-.16 0-.285.07-.348.187L7.32 4.922a.385.385 0 0 0 0 .558c.078.079.16.122.282.122zm0 0"/>
</svg>
